X: 34377
T: Rhu Vaternish
R: waltz
M: 3/4
K: Amixolydian
|:e2|A4 c2|e4 c2|B4 B2|A4 c2|e4 f2|a4 c2|d6|e4 f<g|
a3 g f2|e4 a2|A4 B2|c4 d2|e4 f2|d4 B2|A6|A4:|
|:f<g|a3 g f2|e4 a2|c4 B2|A4 c2|e4 f2|a4 c2|d6|e4 f<g|
a3 g f2|e4 a2|A4 B2|c4 d2|e4 f2|d4 B2|A6|A4:|

